**kern	**kern	**dynam
*part1	*part1	*part1
*staff2	*staff1	*
*I"Piano	*	*
*clefF4	*clefG2	*
*k[f#c#]	*k[f#c#]	*
=1	=1	=1
*	*^	*
!	!LO:TX:a:i:t=ritard.	!	!
([2D 2Fn	2g#X)	[2d	p
=	=	=	=
2D]) 2E	2gn	4d]	>
.	.	4c#	.
=	=	=	=
!	!LO:TX:a:i:t=a tempo  e  calando	!	!
([2DD 2AA	[2f#X	8dL	] mp <
.	.	8A	.
.	.	8.Bn	.
.	.	16AJk	.
=	=	=	=
*^	*	*	*
4BB	2DD_	8f#L]	2G	[ >
.	.	(8e	.	.
4BB-X	.	8f#	.	.
.	.	8eJ	.	.
*v	*v	*	*	*
=	=	=	=
8DD]) 8AA	8dL)	8F#	]
8r	(8c#	8r	.
4GG 4G	8d	4B	>
.	8eJ	.	.
=	=	=	=
4FF# 4E	8f#L	4A	.
.	8g	.	.
8EE 8AA	8a)	8G: 8c#:	.
8r	8a';J	8r	]
*	*v	*v	*
=	=	=
2DD; 2AA	2F#;: 2d: 2a:	.
==	==	==
*-	*-	*-
!!!system-decoration: {(s1,s2)}
